drivers/driver_curtain/assets/icon.svg

<?xml version="1.0" encoding="utf-8"?>
<!-- Generator: Adobe Illustrator 22.0.1, SVG Export Plug-In . SVG Version: 6.00 Build 0)  -->
<!DOCTYPE svg PUBLIC "-//W3C//DTD SVG 1.1//EN" "http://www.w3.org/Graphics/SVG/1.1/DTD/svg11.dtd">
<svg version="1.1" id="Laag_1" xmlns="http://www.w3.org/2000/svg" xmlns:xlink="http://www.w3.org/1999/xlink" x="0px" y="0px"
	 viewBox="0 0 300 300" style="enable-background:new 0 0 300 300;" xml:space="preserve">
<style type="text/css">
	.st0{fill:#4D4D4D;}
</style>
<path class="st0" d="M256.2,60.4c0-0.6-0.3-1.1-0.7-1.5c-0.5-0.6-1.2-1-2.1-0.9l-0.1,0l-183-43.1c-0.2-0.1-0.5-0.1-0.7,0
	c0,0-24.2,2.9-24.3,2.9c-0.1,0-0.2,0.1-0.4,0.1c-0.1,0-0.3,0.1-0.4,0.2c-0.1,0.1-0.2,0.1-0.2,0.2c-0.1,0.1-0.3,0.2-0.4,0.3
	c-0.1,0.1-0.1,0.2-0.2,0.3c-0.1,0.1-0.2,0.3-0.2,0.4c0,0,0,0.1,0,0.1c0,0.1,0,0.2,0,0.3c0,0.1-0.1,0.2,0,0.3l0.8,13.6
	c0.1,0.9,0.7,1.7,1.6,2l6.5,1.5c0,5.2-0.1,27.9,1.6,62.8c1.5,32,6.1,59.2,7.9,68.7c-1.1,0.1-1.7,0.3-1.9,0.4c-0.7,0.3-1.2,1-1.3,1.7
	c-0.1,0.8,0.2,1.5,0.9,2c0.1,0.1,1.5,1.1,3.6,2.1c-1.3,6.5-5.4,26.7-7.2,36.2L50.8,239c-0.1,0.8,0.1,1.5,0.7,2
	c0.2,0.2,4.3,3.5,8.8,4.1c0,0.1,0.1,0.2,0.1,0.3c0.4,0.7,1.9,2.9,7.6,2.9c0.7,0,1.4,0,2.1-0.1c5.2-0.4,7.1-0.7,7.7-0.8
	c2.2,1.1,5.6,2.1,10.2,3c1.3,0.3,2.6-0.8,2.6-2.1v-3.1c2.2,0.8,4.6,1.4,6.4,1.7c1.5,0.3,2.9-1.2,2.4-2.7c0,0-2-6.3-2-6.4
	c0.1,0.2,1.6-0.6,1.7-0.7c0.5-0.5,0.7-1.3,0.6-2c-0.1-0.2-5.3-20.5-7.9-29.3c-2-7-8.2-22.5-10.9-29.3c1.1-0.2,1.9-1.2,1.8-2.3
	c0-0.4-0.2-0.8-0.5-1.2c7.7-5.6,24.7-20,39.2-46.3c16.2-25.3,20.6-59.5,21.5-68.1l12.9,3.1c-0.1,5.9,0.2,36.8,20,79.1
	c11,23.8,37.1,55.4,45.3,65.1c-0.6,0.2-1.1,0.5-1.4,1.1c-0.4,0.9-0.2,1.9,0.6,2.5c0.1,0.1,0.6,0.5,1.6,1.1
	c-3.8,5.9-13.8,21.4-17.6,29.1c-4.6,9.2-13.1,24.4-13.2,24.6c-0.4,0.7-0.4,1.7,0.2,2.3c2,2.6,4.4,5.5,7.4,7c0.7,0.3,1.4,0.5,2.1,0.2
	c-0.2,0.1,1.5,2.8,1.6,3c1.2,1.5,2.9,2.6,4.7,3.2c2.3,0.8,4.8,0.7,7.2,0c0,0,0,0,0.1,0c0,0,2.6-0.6,6.9-0.6c-0.5,3,2.3,4.8,4.8,5.4
	c0.6,0.1,1,0.2,1.5,0.2c1.6,0,2.6-0.7,3.3-1.2c0.9-0.6,1.9-1.4,5.1-1.4c3.5,0,4.9,0.4,5.3,0.5c0.4,0.5,1.1,0.9,1.8,0.8
	c1.2,0,2.1-1,2.1-2.1c0-0.1,0-0.2,0-0.3l-4.6-70.3c0-0.1-0.1-0.2-0.1-0.4c0.4-0.2,0.6-0.3,0.7-0.4c0.8-0.5,1.2-1.4,1-2.3
	c-0.2-0.9-1-1.6-1.9-1.6c0,0-0.1,0-0.3,0c1.8-10.5,5.4-35,6.4-63.9c1.1-32.9-0.4-58.5-0.9-65.5l9.2-1.4c1.1-0.2,1.9-1.1,1.8-2.2
	L256.2,60.4z M69.7,19.3l172.6,40.6l-12.3,2L57.8,20.7L69.7,19.3z M47.9,22.8l179.9,43v8.5L48.5,31.9L47.9,22.8z M220.7,135
	c2.7,24.9,8.6,59,10.7,70.7c-4-6.9-26.3-45.1-33.1-62.5c-8-20.6-16.1-63.8-18.3-75.8l15.5,3.7c0.5,3.9,5.8,45.6,13.5,67.7
	c0.3,0.9,1.1,1.4,2,1.4c0.2,0,0.5,0,0.7-0.1c1.1-0.4,1.7-1.6,1.3-2.7c-6.9-19.8-12-56.7-13.1-65.3l16.9,4
	C217,82.5,217.7,108.5,220.7,135z M77.4,240.9l-2.1-53.7l9.8,52.9C82.4,239.9,79.5,240,77.4,240.9z M69.9,170.2
	C69.9,170.2,69.9,170.2,69.9,170.2c1.2-6.3,5.9-30,10-59.5c4.1-28.9,2.1-57.8,1.4-66.6L97.9,48c-0.4,4.5-4.7,49.2-13,68.3
	c-0.5,1.1,0,2.3,1.1,2.8c0.3,0.1,0.6,0.2,0.9,0.2c0.8,0,1.6-0.5,2-1.3c8.5-19.3,12.6-61.7,13.3-69l13.9,3.3c0,0.1,0,0.1,0,0.2
	c0,0.4-1.6,36.4-10.8,59c-8.8,21.6-32.3,55.1-34.9,58.8C70.1,170.3,70,170.2,69.9,170.2z M56.7,38.3L77,43.1c0.6,6.3,3,36.6-1.2,67
	c-3.8,27-8.1,49.2-9.7,57.4c-1.8-9.7-6.2-36.4-7.7-67.7C56.7,67,56.6,44.9,56.7,38.3z M60.2,211.9c1.3-7.2,4-20.6,5.8-29.5
	l-5.4,58.5c-2-0.4-4-1.5-5.3-2.4L60.2,211.9z M69.8,244c-3,0.2-4.5-0.1-5.2-0.4l6-65.5l2.6,65.6c0,0,0,0,0,0
	C72.3,243.8,71.2,243.9,69.8,244z M86.3,245.7c-1.7-0.4-3.4-0.9-4.7-1.3c1.2-0.1,2.6-0.1,3.9,0c0.3,0,0.5,0,0.7-0.1V245.7z
	 M89.7,240.1c0.7-0.4,2-0.9,3.5-1.4l1,3.2C92.2,241.3,90.4,240.6,89.7,240.1z M95,233.9c-1.9,0.4-4.3,1-6.3,1.9l-9.8-52.7
	c3,7.6,7.2,18.4,8.8,23.8C89.7,214,93.5,228.3,95,233.9z M117.7,124.6c-17.1,31.1-38.3,45.3-41.4,47.3c-0.5-0.1-1.1-0.2-1.7-0.3
	c5.1-7.3,26-37.6,34.5-58.4c8.9-21.9,10.8-54.6,11.1-59.8l18.5,4.4C138,64.9,133.6,99.6,117.7,124.6z M160.1,62.8l15.2,3.6
	c1.5,8.7,10.1,55.9,18.8,78.4c6.2,16,24.6,48.1,31.5,59.9c-6-7.1-34.6-41.2-45.9-65.6C161.4,99.9,160.1,70.1,160.1,62.8z
	 M201.5,270.4c-0.2-0.2-0.5-0.4-0.8-0.5c-1.4-0.5-3.6-2.8-5.2-4.7c2.2-3.9,8.7-15.8,12.6-23.5c3.8-7.6,14.4-24.1,17.8-29.3
	c0.2,0.1,0.3,0.1,0.5,0.2L201.5,270.4z M208.8,276.1c-2.4-0.7-3.3-2.2-3.7-3l23.9-55.4l-14,57.5
	C213.8,275.7,211.4,276.8,208.8,276.1z M219.4,275.2l8.8-35.9l-6.1,35.9C221,275.1,220.2,275.1,219.4,275.2z M240.7,278.4
	c-1.7-0.3-3.5-0.3-4.7-0.3c-4.6,0-6.4,1.3-7.6,2.1c-0.8,0.5-0.7,0.5-1.4,0.4c-1-0.2-1.4-0.5-1.6-0.7l11.1-65L240.7,278.4z
	 M242,142.3c-1,28.9-4.6,53.3-6.4,63.6c-1.9-10.8-8-45.9-10.8-71.3c-2.8-25.1-3.5-49.6-3.7-57.4l8.5,2c0.2,0,0.3,0.1,0.5,0.1
	c0.1,0,0.2,0,0.3,0l10.7-1.6C241.7,84.9,243.2,110.2,242,142.3z M232.1,74.7v-8.7l19.9-3.2l0.2,9L232.1,74.7z"/>
</svg>

<?xml version="1.0" encoding="UTF-8" standalone="no"?>
<!DOCTYPE svg PUBLIC "-//W3C//DTD SVG 1.1//EN" "http://www.w3.org/Graphics/SVG/1.1/DTD/svg11.dtd">
<svg width="100%" height="100%" viewBox="0 0 217 274" version="1.1" xmlns="http://www.w3.org/2000/svg" xmlns:xlink="http://www.w3.org/1999/xlink" xml:space="preserve" xmlns:serif="http://www.serif.com/" style="fill-rule:evenodd;clip-rule:evenodd;stroke-linejoin:round;stroke-miterlimit:2;">
    <g transform="matrix(1,0,0,1,-41.9556,-13.325)">
        <path d="M256.2,60.4C256.2,59.8 255.9,59.3 255.5,58.9C255,58.3 254.3,57.9 253.4,58L253.3,58L70.3,14.9C70.1,14.8 69.8,14.8 69.6,14.9C69.6,14.9 45.4,17.8 45.3,17.8C45.2,17.8 45.1,17.9 44.9,17.9C44.8,17.9 44.6,18 44.5,18.1C44.4,18.2 44.3,18.2 44.3,18.3C44.2,18.4 44,18.5 43.9,18.6C43.8,18.7 43.8,18.8 43.7,18.9C43.6,19 43.5,19.2 43.5,19.3L43.5,19.7C43.5,19.8 43.4,19.9 43.5,20L44.3,33.6C44.4,34.5 45,35.3 45.9,35.6L52.4,37.1C52.4,42.3 52.3,65 54,99.9C55.5,131.9 60.1,159.1 61.9,168.6C60.8,168.7 60.2,168.9 60,169C59.3,169.3 58.8,170 58.7,170.7C58.6,171.5 58.9,172.2 59.6,172.7C59.7,172.8 61.1,173.8 63.2,174.8C61.9,181.3 57.8,201.5 56,211L50.8,239C50.7,239.8 50.9,240.5 51.5,241C51.7,241.2 55.8,244.5 60.3,245.1C60.3,245.2 60.4,245.3 60.4,245.4C60.8,246.1 62.3,248.3 68,248.3C68.7,248.3 69.4,248.3 70.1,248.2C75.3,247.8 77.2,247.5 77.8,247.4C80,248.5 83.4,249.5 88,250.4C89.3,250.7 90.6,249.6 90.6,248.3L90.6,245.2C92.8,246 95.2,246.6 97,246.9C98.5,247.2 99.9,245.7 99.4,244.2C99.4,244.2 97.4,237.9 97.4,237.8C97.5,238 99,237.2 99.1,237.1C99.6,236.6 99.8,235.8 99.7,235.1C99.6,234.9 94.4,214.6 91.8,205.8C89.8,198.8 83.6,183.3 80.9,176.5C82,176.3 82.8,175.3 82.7,174.2C82.7,173.8 82.5,173.4 82.2,173C89.9,167.4 106.9,153 121.4,126.7C137.6,101.4 142,67.2 142.9,58.6L155.8,61.7C155.7,67.6 156,98.5 175.8,140.8C186.8,164.6 212.9,196.2 221.1,205.9C220.5,206.1 220,206.4 219.7,207C219.3,207.9 219.5,208.9 220.3,209.5C220.4,209.6 220.9,210 221.9,210.6C218.1,216.5 208.1,232 204.3,239.7C199.7,248.9 191.2,264.1 191.1,264.3C190.7,265 190.7,266 191.3,266.6C193.3,269.2 195.7,272.1 198.7,273.6C199.4,273.9 200.1,274.1 200.8,273.8C200.6,273.9 202.3,276.6 202.4,276.8C203.6,278.3 205.3,279.4 207.1,280C209.4,280.8 211.9,280.7 214.3,280L214.4,280C214.4,280 217,279.4 221.3,279.4C220.8,282.4 223.6,284.2 226.1,284.8C226.7,284.9 227.1,285 227.6,285C229.2,285 230.2,284.3 230.9,283.8C231.8,283.2 232.8,282.4 236,282.4C239.5,282.4 240.9,282.8 241.3,282.9C241.7,283.4 242.4,283.8 243.1,283.7C244.3,283.7 245.2,282.7 245.2,281.6L245.2,281.3L240.6,211C240.6,210.9 240.5,210.8 240.5,210.6C240.9,210.4 241.1,210.3 241.2,210.2C242,209.7 242.4,208.8 242.2,207.9C242,207 241.2,206.3 240.3,206.3L240,206.3C241.8,195.8 245.4,171.3 246.4,142.4C247.5,109.5 246,83.9 245.5,76.9L254.7,75.5C255.8,75.3 256.6,74.4 256.5,73.3L256.2,60.4ZM69.7,19.3L242.3,59.9L230,61.9L57.8,20.7L69.7,19.3ZM47.9,22.8L227.8,65.8L227.8,74.3L48.5,31.9L47.9,22.8ZM220.7,135C223.4,159.9 229.3,194 231.4,205.7C227.4,198.8 205.1,160.6 198.3,143.2C190.3,122.6 182.2,79.4 180,67.4L195.5,71.1C196,75 201.3,116.7 209,138.8C209.3,139.7 210.1,140.2 211,140.2C211.2,140.2 211.5,140.2 211.7,140.1C212.8,139.7 213.4,138.5 213,137.4C206.1,117.6 201,80.7 199.9,72.1L216.8,76.1C217,82.5 217.7,108.5 220.7,135ZM77.4,240.9L75.3,187.2L85.1,240.1C82.4,239.9 79.5,240 77.4,240.9ZM69.9,170.2C71.1,163.9 75.8,140.2 79.9,110.7C84,81.8 82,52.9 81.3,44.1L97.9,48C97.5,52.5 93.2,97.2 84.9,116.3C84.4,117.4 84.9,118.6 86,119.1C86.3,119.2 86.6,119.3 86.9,119.3C87.7,119.3 88.5,118.8 88.9,118C97.4,98.7 101.5,56.3 102.2,49L116.1,52.3L116.1,52.5C116.1,52.9 114.5,88.9 105.3,111.5C96.5,133.1 73,166.6 70.4,170.3C70.1,170.3 70,170.2 69.9,170.2ZM56.7,38.3L77,43.1C77.6,49.4 80,79.7 75.8,110.1C72,137.1 67.7,159.3 66.1,167.5C64.3,157.8 59.9,131.1 58.4,99.8C56.7,67 56.6,44.9 56.7,38.3ZM60.2,211.9C61.5,204.7 64.2,191.3 66,182.4L60.6,240.9C58.6,240.5 56.6,239.4 55.3,238.5L60.2,211.9ZM69.8,244C66.8,244.2 65.3,243.9 64.6,243.6L70.6,178.1L73.2,243.7C72.3,243.8 71.2,243.9 69.8,244ZM86.3,245.7C84.6,245.3 82.9,244.8 81.6,244.4C82.8,244.3 84.2,244.3 85.5,244.4C85.8,244.4 86,244.4 86.2,244.3L86.2,245.7L86.3,245.7ZM89.7,240.1C90.4,239.7 91.7,239.2 93.2,238.7L94.2,241.9C92.2,241.3 90.4,240.6 89.7,240.1ZM95,233.9C93.1,234.3 90.7,234.9 88.7,235.8L78.9,183.1C81.9,190.7 86.1,201.5 87.7,206.9C89.7,214 93.5,228.3 95,233.9ZM117.7,124.6C100.6,155.7 79.4,169.9 76.3,171.9C75.8,171.8 75.2,171.7 74.6,171.6C79.7,164.3 100.6,134 109.1,113.2C118,91.3 119.9,58.6 120.2,53.4L138.7,57.8C138,64.9 133.6,99.6 117.7,124.6ZM160.1,62.8L175.3,66.4C176.8,75.1 185.4,122.3 194.1,144.8C200.3,160.8 218.7,192.9 225.6,204.7C219.6,197.6 191,163.5 179.7,139.1C161.4,99.9 160.1,70.1 160.1,62.8ZM201.5,270.4C201.3,270.2 201,270 200.7,269.9C199.3,269.4 197.1,267.1 195.5,265.2C197.7,261.3 204.2,249.4 208.1,241.7C211.9,234.1 222.5,217.6 225.9,212.4C226.1,212.5 226.2,212.5 226.4,212.6L201.5,270.4ZM208.8,276.1C206.4,275.4 205.5,273.9 205.1,273.1L229,217.7L215,275.2C213.8,275.7 211.4,276.8 208.8,276.1ZM219.4,275.2L228.2,239.3L222.1,275.2C221,275.1 220.2,275.1 219.4,275.2ZM240.7,278.4C239,278.1 237.2,278.1 236,278.1C231.4,278.1 229.6,279.4 228.4,280.2C227.6,280.7 227.7,280.7 227,280.6C226,280.4 225.6,280.1 225.4,279.9L236.5,214.9L240.7,278.4ZM242,142.3C241,171.2 237.4,195.6 235.6,205.9C233.7,195.1 227.6,160 224.8,134.6C222,109.5 221.3,85 221.1,77.2L229.6,79.2C229.8,79.2 229.9,79.3 230.1,79.3L230.4,79.3L241.1,77.7C241.7,84.9 243.2,110.2 242,142.3ZM232.1,74.7L232.1,66L252,62.8L252.2,71.8L232.1,74.7Z" style="fill:rgb(77,77,77);fill-rule:nonzero;stroke:black;stroke-width:3px;"/>
    </g>
</svg>
